X: 2
T: The Cup Of Tea
R: reel
M: 4/4
L: 1/8
K: Edor
|:BAGF GE (3EEE|GEBE GE (3EEE|BAGF GE (3EEE|FDAD FD (3DDD|
BAGF GE (3EEE|GEBE GE (3EEE|BAGF GABc|(3dcB AG FD (3DDD:|
|:d2 fg fdec|df eg fB (3BcB|d2 eg f2 fg|agfe fB (3BcB|
d2 (3efg fdec|dfaf g2 fg|af (3gfe fdec|(3dcB AG FD (3DDD:|
|:(3FGA A2 FA dA|(3FGA dA FE E2|(3FGA (3FGA (3FGA Bc|(3dcB AG FD (3DDD|
(3FGA A2 A2 A2|(3FGA de fee2|fdec (3dcB AF|GBAG FD (3DDD:|


Tune 20	Setting 23896

